X:25
T: Der Maedchenmoerder (Halewijn - Ulinger)
N: Q0041G
O: Mitteleuropa, Deutschland (BRD) , Hessen, Ziegenhain, Willingshausen
R: Ballade, Verfuehrung, Mord, Mordversuch bzw. Rache
M: 3/4
L: 1/8
K: G
D2 | G3GG2 | E2F2G2 | A2d3c | B2z2
D2 | G3GG2 | E2F2G2 | A2d3c | B2z2
Bc | d2B2d2 | d2B2e2 | d4B2 | G2z2
GG | e2e2dd | c2c2A2 | d4c2 | B2z2
Bc | d2B2d2 | d2B2e2 | d4B2 | G2z2
GG | e2e2dd | c2c2A2 | d4c2 | B2z2

@@@ Tune index: 761
